icon-svg/doube-window-l-open.svg

<svg xmlns="http://www.w3.org/2000/svg" fill="#44739e" viewBox="0 0 24 24"><path d="M17.306 6.739h-5.229v10.184h5.229zm-.443 9.741h-4.344v-9.3h4.344zM7.287 6.785 2.122 5.6v12.8l5.165-1.537Zm-.443 9.751-.031.009-4.248 1.265V6.153l.053.013 4.226.971ZM6.289 6.152v.312l.954.22h4.449v10.263H7.326l-1.037.309v.223H17.7V6.152Zm11.1 10.859h-5.401V6.651h5.406zM6.756 7.208l-.467-.107v9.508l.467-.139Z"/></svg>

<?xml version="1.0" encoding="UTF-8"?>
<svg width="24px" fill="#44739e" height="24px" viewBox="0 0 24 24" version="1.1" xmlns="http://www.w3.org/2000/svg" xmlns:xlink="http://www.w3.org/1999/xlink">
            <path d="m 17.306,6.739 h -5.229 v 10.184 h 5.229 z m -0.443,9.741 h -4.344 v -9.3 h 4.344 z M 7.287,6.785 2.122,5.6 V 18.4 L 7.287,16.863 Z M 6.844,16.536 6.813,16.545 2.565,17.81 V 6.153 L 2.618,6.166 6.844,7.137 Z M 6.289,6.152 v 0.312 l 0.954,0.22 h 4.449 V 16.947 H 7.326 l -1.037,0.309 v 0.223 H 17.7 V 6.152 Z m 11.1,10.859 H 11.988 V 6.651 h 5.406 z M 6.756,7.208 6.289,7.101 v 9.508 L 6.756,16.47 Z"/>

</svg>
